X:399
T:Larry O'Gaff
R:jig
H:See also #364 in G
Z:id:hn-jig-399
M:6/8
L:1/8
K:D
dAF AFD | ABA AFD | GBG FAF | EFG ABc | 
dAF AFD | ABA AFD | GBG FAF | EFE D3 :| 
|: Add dcd | dcd ecA | Ace ede | ede f2d | 
dfe dcB | AdB AFD | GBG FAF |1 EFE D3 :|2 EFG ABc ||

